X: 12341
T: Falkland Frolics
R: slip jig
M: 9/8
K: Gmajor
|:~G3 BAG cAF|~G3 BAG FED|G2 G BAG (3Bcd e|=fed cAF G2 D:|
|:edd cAG FED|d2 B cAG F2 d|edd cAG FGA|~B3 cAF G2 d:|

